X: 1777
T: Tuttle's Reel
S:irtrad-l, 9/94, Dan Beimborn
C: Trad.
M: 4/4
L: 1/8
D: Kevin Burke
N: Ornamented Setting, for fiddle, Mandolin, Tenor Banjo
K: Am
|:{G,}A,DDE FEFG|AcGc (3Add D2|{G,}A,DDE (3EFF Ad|
(3cAA GE FD D2|{G,}A,DDE FEFG|AcGc (3Add de|fd (3ddd dcAB|
(3cBA GE {E}FD D :|
A|:(3Add dA c2 EcA|(3Add dA cAGA|(3ccc dA cAGD|
(3EEE cE EDDA|(3Add dA c2 EcA|(3Add dA E2c2 de|
fd (3ddd dcAB|(3cBA GE {E}FD D :|
